app/img/phone.svg

<svg xmlns="http://www.w3.org/2000/svg" width="340" height="409"><path fill-rule="evenodd" d="M338.28 199.758h-1.493v209.238h-1.432V51.182c0-27.428-22.207-49.742-49.504-49.742H54.128c-27.297 0-49.504 22.314-49.504 49.742v357.814H3.192V259.915H1.681a1.694 1.694 0 0 1-1.688-1.696v-49.295c0-.935.757-1.696 1.688-1.696h1.511v-9.327H1.681a1.694 1.694 0 0 1-1.688-1.696V146.91c0-.935.757-1.696 1.688-1.696h1.511v-32.239H2.81v-.006h-.275V85.877h.275v-.007h.382V51.182C3.192 22.961 26.042.001 54.128.001h231.723c28.086 0 50.936 22.96 50.936 51.181v94.019h1.493c.948 0 1.718.774 1.718 1.726v51.105c0 .952-.77 1.726-1.718 1.726zM3.192 146.627H1.681a.282.282 0 0 0-.281.283v49.295c0 .156.126.282.281.282h1.511v-49.86zm0 62.015H1.681a.281.281 0 0 0-.281.282v49.295c0 .156.126.283.281.283h1.511v-49.86zm335.374-61.715a.286.286 0 0 0-.286-.287h-1.493v51.68h1.493a.287.287 0 0 0 .286-.288v-51.105zM53.781 4.917h232.632c25.078 0 45.481 20.501 45.481 45.7v358.379h-1.432V50.617c0-24.405-19.759-44.261-44.049-44.261H53.781c-24.289 0-44.049 19.856-44.049 44.261v358.379H8.3V50.617c0-25.199 20.402-45.7 45.481-45.7zm65.347 38.88c0-3.722 3.013-6.75 6.718-6.75 3.704 0 6.717 3.028 6.717 6.75s-3.013 6.75-6.717 6.75c-3.705 0-6.718-3.028-6.718-6.75zm12.003 0c0-2.929-2.371-5.311-5.285-5.311-2.915 0-5.286 2.382-5.286 5.311 0 2.928 2.371 5.311 5.286 5.311 2.914 0 5.285-2.383 5.285-5.311zm-8.37 0c0-1.71 1.383-3.1 3.085-3.1 1.7 0 3.084 1.39 3.084 3.1a3.095 3.095 0 0 1-3.084 3.099 3.095 3.095 0 0 1-3.085-3.099zm4.737 0c0-.917-.741-1.661-1.652-1.661-.913 0-1.653.744-1.653 1.661 0 .916.74 1.66 1.653 1.66.911 0 1.652-.744 1.652-1.66zm36.823-25.124c0-2.066 1.673-3.748 3.73-3.748s3.729 1.682 3.729 3.748c0 2.066-1.672 3.747-3.729 3.747-2.057 0-3.73-1.681-3.73-3.747zm6.027 0a2.305 2.305 0 0 0-2.297-2.309 2.306 2.306 0 0 0-2.298 2.309 2.306 2.306 0 0 0 2.298 2.309 2.305 2.305 0 0 0 2.297-2.309zm25.555 25.934c0 2.183-1.767 3.959-3.939 3.959h-47.826c-2.172 0-3.94-1.776-3.94-3.959s1.768-3.959 3.94-3.959h47.826c2.172 0 3.939 1.776 3.939 3.959zm-54.273 0c0 1.39 1.125 2.52 2.508 2.52h47.826a2.516 2.516 0 0 0 2.507-2.52c0-1.39-1.124-2.52-2.507-2.52h-47.826a2.517 2.517 0 0 0-2.508 2.52zM23.329 80.551h293.535a2.997 2.997 0 0 1 2.987 3.001v325.444h-1.432V83.552c0-.861-.698-1.563-1.555-1.563H23.329a1.56 1.56 0 0 0-1.554 1.563v325.444h-1.432V83.552a2.997 2.997 0 0 1 2.986-3.001z"/></svg>

<svg 
 xmlns="http://www.w3.org/2000/svg"
 xmlns:xlink="http://www.w3.org/1999/xlink"
 width="340px" height="409px">
<path fill-rule="evenodd"  fill="rgb(0, 0, 0)"
 d="M338.280,199.758 L336.787,199.758 L336.787,408.996 L335.355,408.996 L335.355,51.182 C335.355,23.754 313.148,1.440 285.851,1.440 L54.128,1.440 C26.831,1.440 4.624,23.754 4.624,51.182 L4.624,408.996 L3.192,408.996 L3.192,259.915 L1.681,259.915 C0.750,259.915 -0.007,259.154 -0.007,258.219 L-0.007,208.924 C-0.007,207.989 0.750,207.228 1.681,207.228 L3.192,207.228 L3.192,197.901 L1.681,197.901 C0.750,197.901 -0.007,197.140 -0.007,196.205 L-0.007,146.910 C-0.007,145.975 0.750,145.214 1.681,145.214 L3.192,145.214 L3.192,112.975 L2.810,112.975 L2.810,112.969 L2.535,112.969 L2.535,85.877 L2.810,85.877 L2.810,85.870 L3.192,85.870 L3.192,51.182 C3.192,22.961 26.042,0.001 54.128,0.001 L285.851,0.001 C313.937,0.001 336.787,22.961 336.787,51.182 L336.787,145.201 L338.280,145.201 C339.228,145.201 339.998,145.975 339.998,146.927 L339.998,198.032 C339.998,198.984 339.228,199.758 338.280,199.758 ZM3.192,146.627 L1.681,146.627 C1.526,146.627 1.400,146.754 1.400,146.910 L1.400,196.205 C1.400,196.361 1.526,196.487 1.681,196.487 L3.192,196.487 L3.192,146.627 ZM3.192,208.642 L1.681,208.642 C1.526,208.642 1.400,208.768 1.400,208.924 L1.400,258.219 C1.400,258.375 1.526,258.502 1.681,258.502 L3.192,258.502 L3.192,208.642 ZM338.566,146.927 C338.566,146.768 338.438,146.640 338.280,146.640 L336.787,146.640 L336.787,198.320 L338.280,198.320 C338.438,198.320 338.566,198.191 338.566,198.032 L338.566,146.927 ZM53.781,4.917 L286.413,4.917 C311.491,4.917 331.894,25.418 331.894,50.617 L331.894,408.996 L330.462,408.996 L330.462,50.617 C330.462,26.212 310.703,6.356 286.413,6.356 L53.781,6.356 C29.492,6.356 9.732,26.212 9.732,50.617 L9.732,408.996 L8.300,408.996 L8.300,50.617 C8.300,25.418 28.702,4.917 53.781,4.917 ZM119.128,43.797 C119.128,40.075 122.141,37.047 125.846,37.047 C129.550,37.047 132.563,40.075 132.563,43.797 C132.563,47.519 129.550,50.547 125.846,50.547 C122.141,50.547 119.128,47.519 119.128,43.797 ZM131.131,43.797 C131.131,40.868 128.760,38.486 125.846,38.486 C122.931,38.486 120.560,40.868 120.560,43.797 C120.560,46.725 122.931,49.108 125.846,49.108 C128.760,49.108 131.131,46.725 131.131,43.797 ZM122.761,43.797 C122.761,42.087 124.144,40.697 125.846,40.697 C127.546,40.697 128.930,42.087 128.930,43.797 C128.930,45.506 127.546,46.896 125.846,46.896 C124.144,46.896 122.761,45.506 122.761,43.797 ZM127.498,43.797 C127.498,42.880 126.757,42.136 125.846,42.136 C124.933,42.136 124.193,42.880 124.193,43.797 C124.193,44.713 124.933,45.457 125.846,45.457 C126.757,45.457 127.498,44.713 127.498,43.797 ZM164.321,18.673 C164.321,16.607 165.994,14.925 168.051,14.925 C170.108,14.925 171.780,16.607 171.780,18.673 C171.780,20.739 170.108,22.420 168.051,22.420 C165.994,22.420 164.321,20.739 164.321,18.673 ZM170.348,18.673 C170.348,17.400 169.318,16.364 168.051,16.364 C166.784,16.364 165.753,17.400 165.753,18.673 C165.753,19.946 166.784,20.982 168.051,20.982 C169.318,20.982 170.348,19.946 170.348,18.673 ZM195.903,44.607 C195.903,46.790 194.136,48.566 191.964,48.566 L144.138,48.566 C141.966,48.566 140.198,46.790 140.198,44.607 C140.198,42.424 141.966,40.648 144.138,40.648 L191.964,40.648 C194.136,40.648 195.903,42.424 195.903,44.607 ZM141.630,44.607 C141.630,45.997 142.755,47.127 144.138,47.127 L191.964,47.127 C193.347,47.127 194.471,45.997 194.471,44.607 C194.471,43.217 193.347,42.087 191.964,42.087 L144.138,42.087 C142.755,42.087 141.630,43.217 141.630,44.607 ZM23.329,80.551 L316.864,80.551 C318.511,80.551 319.851,81.897 319.851,83.552 L319.851,408.996 L318.419,408.996 L318.419,83.552 C318.419,82.691 317.721,81.989 316.864,81.989 L23.329,81.989 C22.472,81.989 21.775,82.691 21.775,83.552 L21.775,408.996 L20.343,408.996 L20.343,83.552 C20.343,81.897 21.683,80.551 23.329,80.551 Z"/>
</svg>
